X:1
T: William McDonald Black
C:
R:Strathspey
Q: 128
K:D
M:4/4
L:1/16
|:A,2|D4 F3D A3D FD3|d3e ((3d2c2B2) A3F D3F|E4 G3E B3E G3F|Ee3 e3d ((3c2B2A2) ((3G2F2E2) |
D4 F3D A3D FD3|d3e ((3d2c2B2) A3F D3F|G3B ((3e2f2g2) ((3f2e2d2) a3d|((3c2B2A2) ((3G2F2E2) FD3 D2c2|
d4 A3d ((3f2e2d2) a3g|f3d ((3A2B2c2) d3A FD3|e4 B3e ((3g2f2e2) b3a|ge3 ((3B2c2d2) e3B GE3|
d4 A3d ((3f2e2d2) a3g|f3d ((3A2B2c2) d3A FD3|G3A B3G F3G A3F|((3E2F2G2) ((3A2B2c2) dD3 D4:|
